src/Palette-Dark/16/symbolic/status/weather-tornado-symbolic.svg

<?xml version="1.0" encoding="UTF-8" standalone="no"?>
<!-- Created with Inkscape (http://www.inkscape.org/) -->

<svg
   width="16"
   height="16"
   viewBox="0 0 16 16"
   version="1.1"
   id="svg5"
   inkscape:version="1.2.2 (1:1.2.2+202305151914+b0a8486541)"
   sodipodi:docname="weather-tornado-symbolic.svg"
   xmlns:inkscape="http://www.inkscape.org/namespaces/inkscape"
   xmlns:sodipodi="http://sodipodi.sourceforge.net/DTD/sodipodi-0.dtd"
   xmlns="http://www.w3.org/2000/svg"
   xmlns:svg="http://www.w3.org/2000/svg">
  <sodipodi:namedview
     id="namedview7"
     pagecolor="#ffffff"
     bordercolor="#000000"
     borderopacity="0.25"
     inkscape:showpageshadow="2"
     inkscape:pageopacity="0.0"
     inkscape:pagecheckerboard="0"
     inkscape:deskcolor="#d1d1d1"
     inkscape:document-units="px"
     showgrid="false"
     inkscape:zoom="51.875"
     inkscape:cx="7.0168675"
     inkscape:cy="8"
     inkscape:window-width="1920"
     inkscape:window-height="1008"
     inkscape:window-x="0"
     inkscape:window-y="0"
     inkscape:window-maximized="1"
     inkscape:current-layer="svg5" />
  <defs
     id="defs2">
     <style
        id="current-color-scheme"
        type="text/css">
        .ColorScheme-Text { color:#dfdfdf; } .ColorScheme-Highlight { color:#4285f4; } .ColorScheme-NeutralText { color:#ff9800; } .ColorScheme-PositiveText { color:#4caf50; } .ColorScheme-NegativeText { color:#f44336; }
     </style>
  </defs>
  <path
     d="M 3,1 C 2.446,1 2,1.446 2,2 2,2.554 2.446,3 3,3 H 13 C 13.554,3 14,2.554 14,2 14,1.446 13.554,1 13,1 Z M 5,4 C 4.446,4 4,4.446 4,5 4,5.554 4.446,6 5,6 h 8 C 13.554,6 14,5.554 14,5 14,4.446 13.554,4 13,4 Z M 4,7 C 3.446,7 3,7.446 3,8 3,8.554 3.446,9.0000005 4,9.0000005 H 9 C 9.5539999,9.0000005 9.9999999,8.554 9.9999999,8 9.9999999,7.446 9.5539999,7 9,7 Z m 3,3.000001 c -0.554,0 -1,0.446 -1,1 0,0.554 0.446,1 1,1 h 4 c 0.554,0 1,-0.446 1,-1 0,-0.554 -0.446,-1 -1,-1 z m -1,3 c -0.554,0 -1,0.446 -1,1 0,0.554 0.446,1 1,1 h 2 c 0.554,0 1,-0.446 1,-1 0,-0.554 -0.446,-1 -1,-1 z"
     style="fill:currentColor;stroke-width:2;stroke-linecap:round;stroke-linejoin:round;paint-order:markers stroke fill;fill-opacity:1"
     class="ColorScheme-Text"
     id="path345" />
</svg>

<?xml version="1.0" encoding="UTF-8" standalone="no"?>
<svg
   width="16"
   height="16"
   version="1.1"
   id="svg1"
   sodipodi:docname="weather-tornado-symbolic.svg"
   inkscape:version="1.4.3 (0d15f75042, 2025-12-25)"
   xmlns:inkscape="http://www.inkscape.org/namespaces/inkscape"
   xmlns:sodipodi="http://sodipodi.sourceforge.net/DTD/sodipodi-0.dtd"
   xmlns="http://www.w3.org/2000/svg"
   xmlns:svg="http://www.w3.org/2000/svg">
  <defs
     id="defs1">
     <style
        id="current-color-scheme"
        type="text/css">
        .ColorScheme-Text { color:#dfdfdf; } .ColorScheme-Highlight { color:#4285f4; } .ColorScheme-NeutralText { color:#ff9800; } .ColorScheme-PositiveText { color:#4caf50; } .ColorScheme-NegativeText { color:#f44336; }
     </style>
  </defs>
  <sodipodi:namedview
     id="namedview1"
     pagecolor="#ffffff"
     bordercolor="#000000"
     borderopacity="0.25"
     inkscape:showpageshadow="2"
     inkscape:pageopacity="0.0"
     inkscape:pagecheckerboard="0"
     inkscape:deskcolor="#d1d1d1"
     inkscape:zoom="51.9375"
     inkscape:cx="8"
     inkscape:cy="8"
     inkscape:window-width="1920"
     inkscape:window-height="1012"
     inkscape:window-x="0"
     inkscape:window-y="0"
     inkscape:window-maximized="1"
     inkscape:current-layer="svg1" />
  <path
     id="path1"
     style="fill:currentColor"
     class="ColorScheme-Text"
     d="M 3 1 C 2.446 1 2 1.446 2 2 C 2 2.554 2.446 3 3 3 L 13 3 C 13.554 3 14 2.554 14 2 C 14 1.446 13.554 1 13 1 L 3 1 z M 5 4 C 4.446 4 4 4.446 4 5 C 4 5.554 4.446 6 5 6 L 13 6 C 13.554 6 14 5.554 14 5 C 14 4.446 13.554 4 13 4 L 5 4 z M 4 7 C 3.446 7 3 7.446 3 8 C 3 8.554 3.446 9 4 9 L 9 9 C 9.554 9 10 8.554 10 8 C 10 7.446 9.554 7 9 7 L 4 7 z M 7 10 C 6.446 10 6 10.446 6 11 C 6 11.554 6.446 12 7 12 L 11 12 C 11.554 12 12 11.554 12 11 C 12 10.446 11.554 10 11 10 L 7 10 z M 6 13 C 5.446 13 5 13.446 5 14 C 5 14.554 5.446 15 6 15 L 8 15 C 8.554 15 9 14.554 9 14 C 9 13.446 8.554 13 8 13 L 6 13 z " />
</svg>
